symbols/web/fiber_dvr/materialsymbolsoutlined/fiber_dvr_wght700grad200fill1_48px.svg

<svg xmlns="http://www.w3.org/2000/svg" height="48" width="48"><path d="M5.6 41.1q-1.85 0-3.2-1.35t-1.35-3.2v-25.1q0-1.9 1.35-3.25t3.2-1.35h36.8q1.85 0 3.2 1.35t1.35 3.25v25.1q0 1.85-1.35 3.2t-3.2 1.35Zm24.55-10.95h2.45V25.7h2.85l1.75 4.45h2.45l-1.75-4.7q.85-.2 1.45-.825t.6-1.475v-2.8q0-.95-.8-1.725-.8-.775-1.7-.775h-7.3Zm2.45-6.95v-2.85h4.85v2.85Zm-9.95 6.95h2.5L29 17.85h-2.5l-2.45 8.7-2.65-8.7h-2.25Zm-14.55 0h7.35q.95 0 1.7-.775t.75-1.725v-7.3q0-1-.75-1.75t-1.7-.75H8.1Zm2.5-2.5v-7.3h4.85v7.3Z"/></svg>

<svg xmlns="http://www.w3.org/2000/svg" height="48" width="48"><path d="M5.6 41.1Q3.75 41.1 2.4 39.75Q1.05 38.4 1.05 36.55V11.45Q1.05 9.55 2.4 8.2Q3.75 6.85 5.6 6.85H42.4Q44.25 6.85 45.6 8.2Q46.95 9.55 46.95 11.45V36.55Q46.95 38.4 45.6 39.75Q44.25 41.1 42.4 41.1ZM30.15 30.15H32.6V25.7H35.45L37.2 30.15H39.65L37.9 25.45Q38.75 25.25 39.35 24.625Q39.95 24 39.95 23.15V20.35Q39.95 19.4 39.15 18.625Q38.35 17.85 37.45 17.85H30.15ZM32.6 23.2V20.35H37.45Q37.45 20.35 37.45 20.35Q37.45 20.35 37.45 20.35V23.2Q37.45 23.2 37.45 23.2Q37.45 23.2 37.45 23.2ZM22.65 30.15H25.15L29 17.85H26.5L24.05 26.55L21.4 17.85H19.15ZM8.1 30.15H15.45Q16.4 30.15 17.15 29.375Q17.9 28.6 17.9 27.65V20.35Q17.9 19.35 17.15 18.6Q16.4 17.85 15.45 17.85H8.1ZM10.6 27.65V20.35H15.45Q15.45 20.35 15.45 20.35Q15.45 20.35 15.45 20.35V27.65Q15.45 27.65 15.45 27.65Q15.45 27.65 15.45 27.65Z"/></svg>
